X: 130
T: The Dear Black Cow
N:"Very slow"
B:O'Neill's 130
Z:Transcribed by henrik.norbeck@mailbox.swipnet.se
M:3/8
L:1/16
K:Em
"f"(E>F)|(G4 F2)|E>EH^D2 (E>F)|(G4 F2)|E2 z2 (D>E)|
(F4 E2)|(">"D>B,">"A,>B,">"D>E)|("p"F4 E2)|D2 z2 (E>F)|
(G4 F2)|E>EH^D2 (E>F)|(G4 A2)|G>F F4|
(EFGAB>d)|e2He2 (3cBA|(G4 F2)|E4||


